X:2521
T:Polska från Hälsingland
T:Svenska Folkdansar H3 nr 32
O:Hälsingland
B:Traditioner av Svenska Folkdansar Häfte 3, nr 32
R:Polska
Z:Nils L
U:t=tenuto
U:w=wedge
M:3/4
L:1/8
K:A
tE2 wewf wewc | wdwe wfwg wfwd | (e>f) we2 wc2 | tA2 wewf wewc |
wdwe wfwg wfwd | (e>f) e2 z2 :: wA2 wc2 wA2 | wc2 wA2 wE2 |
"^B?"wA2 wc2 wA2 | wc2 wA2 wE2 | A2 Bd cB | A>G A2 z2 :|
(:musicend:)
(:music:)
